src/assets/icons/building.svg

<svg width="20" height="21" viewBox="0 0 20 21" fill="none" xmlns="http://www.w3.org/2000/svg">
<path fill-rule="evenodd" clip-rule="evenodd" d="M4 17V4H3.75C3.33579 4 3 3.66421 3 3.25C3 2.83579 3.33579 2.5 3.75 2.5H16.25C16.6642 2.5 17 2.83579 17 3.25C17 3.66421 16.6642 4 16.25 4H16V17H16.25C16.6642 17 17 17.3358 17 17.75C17 18.1642 16.6642 18.5 16.25 18.5H12.75C12.3358 18.5 12 18.1642 12 17.75V15.25C12 14.8358 11.6642 14.5 11.25 14.5H8.75C8.33579 14.5 8 14.8358 8 15.25V17.75C8 18.1642 7.66421 18.5 7.25 18.5H3.75C3.33579 18.5 3 18.1642 3 17.75C3 17.3358 3.33579 17 3.75 17H4ZM7 6C7 5.72386 7.22386 5.5 7.5 5.5H8.5C8.77614 5.5 9 5.72386 9 6V7C9 7.27614 8.77614 7.5 8.5 7.5H7.5C7.22386 7.5 7 7.27614 7 7V6ZM7.5 9.5C7.22386 9.5 7 9.72386 7 10V11C7 11.2761 7.22386 11.5 7.5 11.5H8.5C8.77614 11.5 9 11.2761 9 11V10C9 9.72386 8.77614 9.5 8.5 9.5H7.5ZM11 6C11 5.72386 11.2239 5.5 11.5 5.5H12.5C12.7761 5.5 13 5.72386 13 6V7C13 7.27614 12.7761 7.5 12.5 7.5H11.5C11.2239 7.5 11 7.27614 11 7V6ZM11.5 9.5C11.2239 9.5 11 9.72386 11 10V11C11 11.2761 11.2239 11.5 11.5 11.5H12.5C12.7761 11.5 13 11.2761 13 11V10C13 9.72386 12.7761 9.5 12.5 9.5H11.5Z" fill="white"/>
</svg>

<svg xmlns="http://www.w3.org/2000/svg" width="20" height="21" fill="none" xmlns:v="https://vecta.io/nano"><path fill-rule="evenodd" d="M4 17V4h-.25a.75.75 0 1 1 0-1.5h12.5a.75.75 0 1 1 0 1.5H16v13h.25a.75.75 0 1 1 0 1.5h-3.5a.75.75 0 0 1-.75-.75v-2.5a.75.75 0 0 0-.75-.75h-2.5a.75.75 0 0 0-.75.75v2.5a.75.75 0 0 1-.75.75h-3.5a.75.75 0 1 1 0-1.5H4zM7 6a.5.5 0 0 1 .5-.5h1A.5.5 0 0 1 9 6v1a.5.5 0 0 1-.5.5h-1A.5.5 0 0 1 7 7V6zm.5 3.5a.5.5 0 0 0-.5.5v1a.5.5 0 0 0 .5.5h1A.5.5 0 0 0 9 11v-1a.5.5 0 0 0-.5-.5h-1zM11 6a.5.5 0 0 1 .5-.5h1a.5.5 0 0 1 .5.5v1a.5.5 0 0 1-.5.5h-1A.5.5 0 0 1 11 7V6zm.5 3.5a.5.5 0 0 0-.5.5v1a.5.5 0 0 0 .5.5h1a.5.5 0 0 0 .5-.5v-1a.5.5 0 0 0-.5-.5h-1z" fill="#fff"/></svg>
